X: 12
T: Horsly Lasses
R: jig
M: 6/8
L: 1/8
Z: 2010 John Chambers <jc:trillian.mit.edu>
B: 19th century tune book collected by W.A. Cocks.
F: http://www.asaplive.com/archive/browse_by_collection.asp
N: The asaplive.com web site is complex, and links to its files don't usually work.
K: D
F |\
DFA d2f | efd c2A | Bcd ABF | GEE E3 |\
DFA d2f | efd c2A | Bcd ABG | FDD D2 :|
|: g |\
fdf agf | geg bag | fdf agf | gee e2g |\
fdf agf | geg bag | fgf ede | ddd d2 :|


%%sep 5 1 500

